X:1
T:La cachucha
T:La cachucha
T:"As Danced by Mad'lle Fanny Elssler; Performed with unbounded applause by the Boston Brigade Band " 
T:Anonymous
T:by IMSLP - Public Domain
T:by IMSLP - Public Domain
T:by IMSLP - Public Domain
T:by IMSLP - Public Domain
C:Anonymous
Z:by IMSLP - Public Domain
%%score { 1 | ( 2 3 ) }
L:1/8
Q:1/4=100
M:3/8
K:G
V:1 treble nm="Piano" snm="Pno."
V:2 bass 
V:3 bass 
V:1
"^Allegretto" [Bdg]3- | [Bdg]{/a} g/f/g/a/ | bg.d |!<(!{ed^c} d!>(!e!<)!B!>)! | d3- | %5
 d{/b} a/^g/a/b/ | c'a.f |!<(!{ed^c} d!>(!e!<)!B!>)! | (d2 c | B)!p!!8va(!{/b'} g'/f'/g'/a'/ | %10
 b'g'.d' |{e'd'^c'} d'e'b | (d'3 | c'){/b'} a'/^g'/a'/b'/ | c''a'.f' |{e'd'^c'} d'e'=c' | %16
 (b [bd']/[c'e']/[bd']/[ac']/) | .[gb].[gb].[fa]!8va)! |"^loco." .[Ec] !>![DB]2 | [B,B].[GB].[Ac] | %20
 .[Bd][ce]>[Bd] | .A.[FA].[^E^G] | [GB] !>![FA]2 | .[FA].[GB].[Ac] | .[Fd]!>(![Ge]>[Fd]!>)! | %25
 .[GB].[GB].[FA] | .[Ec] !>![DB]2 | .[B,G].[GB].[Ac] | .[Bd]!>(![ce]>[Bd]!>)! | .A[FA][^E^G] | %30
 .[GB] !>![FA]2 | [FA].[GB].[Ac] | .[Bd]!>(![ce]>[Bd]!>)! | .G [Bdg][Bdg] |"^(" [Bdg]3 | %35
 !>!b>!p!dg/B/ | d z/ d'/d'/d'/ | d'>(bg/^g/ | ba) z | !>!c'>fa/c/ | f z/ c'/c'/c'/ | %41
 c'>(e'a/d'/) | c'b z | !>!b>ag/f/ | e/^d/e/f/g |!8va(! ^c'>ab/c'/ |{/e'} d'/^c'/d'/e'/f' | %47
 ^c'>ab/c'/ |{/e'} d'/^c'/d'/e'/f' | (f'/e'/^d'/e'/g'/e'/ | d'/^c'/e'/c'/ a)!8va)! | %51
"^loco." (d/<f/)(d/<f/)(f/<a/) | (e/<g/) !>![df]2 | (f/<a/)(d/<f/)(A/<d/) | (G/<B/) !>![FA]2 | %55
 (B/<d/)(A/<^c/)(G/<B/) | (F/<A/)(E/<G/)(^D/<F/) | (E/<G/) z (G/<^c/) | d z/!f! ^c'/e'/d'/ | %59
 c'/d'/=c'/a/c'/b/ | a z/!p! ^c'/e'/d'/ | c'/d'/=c'/a/c'/b/ | a z/!f! ^c'/e'/d'/ | %63
 c'/d'/=c'/a/c'/b/ | g/b/a/f/a/"_dim."g/ | e/g/f/d/f/e/ | ^c/e/!mp!d/"_cresc."^d/e/f/ | [Bdg]3- | %68
!f! [Bdg]{/a} g/f/g/a/ | bg.d |{ed^c} deB | d3- | d{/b} a/^g/a/b/ | c'a.f |{ed^c} de=c | %75
 B([Bd]/[ce]/[Bd]/[Ac]/) | .[GB].[GB].[FA] | .[Ec] !>![DB]2 | [B,B].[GB].[Ac] | .[Bd]!>![ce]>[Bd] | %80
 .A.[FA].[^E^G] | [GB] !>![FA]2 | .[FA].[GB].[Ac] | .[Bd]!>![Be]>[Bd] | .[Bd].[Bdg].[Bdg] | %85
 [Bdg][Bd]/[ce]/[Bd]/[Ac]/ | [GB][d=f]/[eg]/[df]/[ce]/ | [Bd]!p!!8va(![bd']/[c'e']/[bd']/[ac']/ | %88
 [gb][d'=f']/[e'g']/[d'f']/[c'e']/ | .[bd'].[=f'b'].[f'b'] |"_cresc." .[=f'b'].[f'b'].[f'b'] | %91
 [e'c''] !>![c'a']2 | a'/e'/d''/c''/a'/e'/ | g'/d'/c''/b'/g'/d'/ | f'/c'/b'/a'/f'/c'/ | %95
 b/g/e'/d'/b/g/ | a/[df]/e'/d'/c'/[da]/ | b/g/e'/d'/c'/b/ | a/[df]/e'/d'/c'/a/ | %99
 g!8va)! z/"^loco." (G/B/d/ | g) z/ (B/d/!mf!g/ |"_cresc." b) z/ (B/d/g/ | b) z/ (g/b/d'/ | %103
 g')[bd'g'][bd'g'] |!ff! [bd'g']2 z |] %105
V:2
 G,/.D/B,/D/B,/D/ | G,/.D/B,/D/B,/D/ | G,/.D/B,/D/B,/D/ | G,/.D/B,/D/B,/D/ | F,/.D/B,/D/B,/D/ | %5
 F,/.D/B,/D/B,/D/ | D,/.D/B,/D/B,/D/ | D,/.D/B,/D/B,/D/ | G,/.D/B,/D/B,/D/ | G,/.D/B,/D/B,/D/ | %10
 G,/.D/B,/D/B,/D/ | G,/.D/B,/D/B,/D/ | F,/.D/B,/D/B,/D/ | F,/.D/B,/D/B,/D/ | D,/.D/B,/D/B,/D/ | %15
 D,/.D/B,/D/B,/D/ | G,/.D/B,/D/B,/D/ | G,2 z | G,,/G,/G,,/G,/G,,/G,/ | G,,/G,/G,,/G,/G,,/G,/ | %20
 G,,/G,/G,,/G,/G,,/G,/ | D,,/D,/D,,/D,/D,,/D,/ | D,,/D,/D,,/D,/D,,/D,/ | D,,/D,/D,,/D,/D,,/D,/ | %24
 D,,/D,/D,,/D,/D,,/D,/ | G,,/G,/G,,/G,/G,,/G,/ | G,,/G,/G,,/G,/G,,/G,/ | G,,/G,/G,,/G,/G,,/G,/ | %28
 G,,/G,/G,,/G,/G,,/G,/ | D,,/D,/D,,/D,/D,,/D,/ | D,,/D,/D,,/D,/D,,/D,/ | D,,/D,/D,,/D,/D,,/D,/ | %32
 D,,/D,/D,,/D,/D,,/D,/ | [G,,G,][D,,D,][B,,,B,,] | [G,,,G,,]3 | G,[B,D][B,D] | G,[B,D][B,D] | %37
 G,[B,D][B,D] | D,[A,D][A,D] | D,[A,D][A,D] | D,[A,D][A,D] | D,[A,D][A,D] | G,[B,D][B,D] | %43
 G,[B,E][B,E] | G,[B,E][B,E] | G,[A,E][A,E] | F,[A,D][A,D] | G,[A,E][A,E] | F,[A,D][A,D] | %49
 A,[B,E][B,E] | A,[C^E][CE] | D,DD | D,DD | D,DD | D,DD | [B,D][A,^C][G,B,] | %56
 .[F,A,].[E,G,].[B,,F,] | [E,G,] z [A,,F,A,] | [D,F,A,] z z | z3 | z [D,F,A,] z | z3 | %62
 z [D,F,A,] z | z3 | z3 | z3 | z3 | G,/D/B,/D/B,/D/ | G,/D/B,/D/B,/D/ | G,/D/B,/D/B,/D/ | %70
 G,/D/B,/D/B,/D/ | F,/D/B,/D/B,/D/ | D,/D/B,/D/B,/D/ | D,/D/B,/D/B,/D/ | D,/D/B,/D/B,/D/ | %75
 G,/D/B,/D/B,/D/ | G,2 z | G,,/G,/G,,/G,/G,,/G,/ | G,,/G,/G,,/G,/G,,/G,/ | G,,/G,/G,,/G,/G,,/G,/ | %80
 D,,/D,/D,,/D,/D,,/D,/ | D,,/D,/D,,/D,/D,,/D,/ | D,,/D,/D,,/D,/D,,/D,/ | D,,/D,/D,,/D,/D,,/D,/ | %84
 [G,,G,][D,,D,][B,,,B,,] | [G,,,G,,]2 z | [G,,G,] z z | [G,,G,] z z | [G,,G,] z z | %89
 [G,,G,][G,,G,][G,,G,] | [^G,,^G,][G,,G,][G,,G,] | [A,,A,] !>![A,,A,]2 | C,[E,A,][E,A,] | %93
 D,[G,B,][G,B,] | D,[F,A,][F,A,] | [G,B,]2 z | [D,A,D][D,A,D][D,A,D] | [D,A,D]2 z | %98
 [D,A,D][D,A,D][D,A,D] | [G,B,]/D/[G,B,]/D/[G,B,]/D/ | [G,B,]/D/[G,B,]/D/[G,B,]/D/ | %101
 [G,B,]/D/[G,B,]/D/[G,B,]/D/ | [G,B,]/D/[G,B,]/D/[G,B,]/D/ | [G,B,]/D/[G,B,]/D/[G,B,]/D/ | %104
 [G,B,]2 z |] %105
V:3
 G,3 | G,3 | G,3 | G,3 | F,3 | F,3 | D,3 | D,3 | G,3 | G,3 | G,3 | G,3 | F,3 | F,3 | D,3 | D,3 | %16
 G,3 | x3 | x3 | x3 | x3 | x3 | x3 | x3 | x3 | x3 | x3 | x3 | x3 | x3 | x3 | x3 | x3 | x3 | x3 | %35
 G,3 | G,3 | G,3 | D,3 | D,3 | D,3 | D,3 | G,3 | G,3 | G,3 | G,3 | F,3 | G,3 | F,3 | A,3 | A,3 | %51
 D,3 | D,3 | D,3 | D,3 | x3 | x3 | x3 | x3 | x3 | x3 | x3 | x3 | x3 | x3 | x3 | x3 | G,3 | G,3 | %69
 G,3 | G,3 | F,3 | D,3 | D,3 | D,3 | G,3 | x3 | x3 | x3 | x3 | x3 | x3 | x3 | x3 | x3 | x3 | x3 | %87
 x3 | x3 | x3 | x3 | x3 | C,3 | D,3 | D,3 | x3 | x3 | x3 | x3 | x3 | x3 | x3 | x3 | x3 | x3 |] %105

